X:6
T:No.16 John Stewart
C:reel
M:4/4
L:1/8
K:F
DGGA BdcB|AFFF FdcA|DGGA (3Bcd fd|
cAfc AGGF|DGGA B2 cB|AF (3FFF dFcF|
DGGA (3Bcd fd|cAfc AG G2||zgga b2 ag|
fcac gcfc|g3 a bgag|fdcA BG G2|zgga b2 ag|
fcfg agfa|g2 fg dfcf|AFcA G3 F||
